storage/app/icons/phosphoricons/bold/floppy-disk-bold.svg

<svg xmlns="http://www.w3.org/2000/svg" fill="currentColor" viewBox="0 0 256 256"><path d="m222.14 69.17-35.31-35.31A19.86 19.86 0 0 0 172.69 28H48a20 20 0 0 0-20 20v160a20 20 0 0 0 20 20h160a20 20 0 0 0 20-20V83.31a19.86 19.86 0 0 0-5.86-14.14M164 204H92v-44h72Zm40 0h-16v-48a20 20 0 0 0-20-20H88a20 20 0 0 0-20 20v48H52V52h119l33 33ZM164 84a12 12 0 0 1-12 12H96a12 12 0 0 1 0-24h56a12 12 0 0 1 12 12"/></svg>

<svg xmlns="http://www.w3.org/2000/svg" viewBox="0 0 256 256" fill="currentColor"><path d="M222.14,69.17,186.83,33.86A19.86,19.86,0,0,0,172.69,28H48A20,20,0,0,0,28,48V208a20,20,0,0,0,20,20H208a20,20,0,0,0,20-20V83.31A19.86,19.86,0,0,0,222.14,69.17ZM164,204H92V160h72Zm40,0H188V156a20,20,0,0,0-20-20H88a20,20,0,0,0-20,20v48H52V52H171l33,33ZM164,84a12,12,0,0,1-12,12H96a12,12,0,0,1,0-24h56A12,12,0,0,1,164,84Z"/></svg>
